app/images/icon/del-address.svg

<svg width="32" height="23" viewBox="0 0 32 23" fill="none" xmlns="http://www.w3.org/2000/svg">
<path d="M31.9173 14.3394L30.2976 11.861C29.5823 10.7659 28.3671 10.1119 27.0461 10.1119H22.8571V7.70135C22.8571 6.22953 21.6602 5.03266 20.1884 5.03266H12.3465C11.9065 2.73454 9.88363 0.990967 7.45908 0.990967C4.71366 0.990967 2.48035 3.22456 2.48035 5.96969C2.48035 7.69582 3.3642 9.2185 4.70232 10.1119H0.508045C0.227283 10.1119 0 10.3392 0 10.62C0 10.9008 0.227283 11.128 0.508045 11.128H5.58733V12.1438H3.55544C3.27497 12.1438 3.04769 12.3711 3.04769 12.6519C3.04769 12.9326 3.27497 13.1596 3.55544 13.1596H5.58733V14.1754H0.508045C0.227283 14.1754 0 14.4027 0 14.6835C0 14.9642 0.227283 15.1915 0.508045 15.1915H5.58733V17.4411C4.69186 17.8361 4.06349 18.7295 4.06349 19.7694V20.2708C4.06349 20.5516 4.29106 20.7789 4.57153 20.7789H9.07651C9.36541 22.0216 10.4797 22.9517 11.8094 22.9517C13.1394 22.9517 14.2535 22.0216 14.5424 20.7789H24.3147C24.6038 22.0216 25.7182 22.9517 27.0476 22.9517C28.377 22.9517 29.4916 22.0216 29.7805 20.7789H31.4921C31.7729 20.7789 31.9999 20.5516 31.9999 20.2708V14.6172C31.9999 14.5184 31.9711 14.4216 31.9173 14.3394ZM3.49615 5.96969C3.49615 3.78463 5.27402 2.00677 7.45908 2.00677C9.64443 2.00677 11.422 3.78463 11.422 5.96969C11.422 8.15475 9.64443 9.93262 7.45908 9.93262C5.27402 9.93262 3.49615 8.15475 3.49615 5.96969ZM6.60313 15.1915H7.61893C7.89969 15.1915 8.12698 14.9642 8.12698 14.6835C8.12698 14.4027 7.89969 14.1754 7.61893 14.1754H6.60313V13.1596H10.1589C10.4393 13.1596 10.6666 12.9326 10.6666 12.6519C10.6666 12.3711 10.4393 12.1438 10.1589 12.1438H6.60313V11.128H13.2063C13.4867 11.128 13.7143 10.9008 13.7143 10.62C13.7143 10.3392 13.4867 10.1119 13.2063 10.1119H10.2158C11.5333 9.23217 12.4073 7.74174 12.434 6.04846H20.1887C21.0999 6.04846 21.8413 6.79018 21.8413 7.70135V17.2231H6.60953C6.60749 17.2231 6.60546 17.2237 6.60313 17.2237V15.1915ZM21.8413 19.7628H14.5886C14.5086 19.1786 14.2494 18.6519 13.8666 18.2389H21.8413V19.7628ZM6.60953 18.2389H9.75225C9.36977 18.6519 9.11022 19.1786 9.03059 19.7628H5.07929C5.08277 18.9222 5.76811 18.2389 6.60953 18.2389ZM11.8094 21.9359C10.8215 21.9359 10.0173 21.132 10.0173 20.1438C10.0173 19.1559 10.8215 18.3517 11.8094 18.3517C12.7976 18.3517 13.6015 19.1559 13.6015 20.1438C13.6015 21.132 12.7976 21.9359 11.8094 21.9359ZM27.0476 21.9359C26.0597 21.9359 25.2555 21.132 25.2555 20.1438C25.2555 19.1559 26.0597 18.3517 27.0476 18.3517C28.0358 18.3517 28.8397 19.1559 28.8397 20.1438C28.8397 21.132 28.0358 21.9359 27.0476 21.9359ZM30.9841 19.7628H29.8267C29.6398 18.3947 28.4662 17.3359 27.0476 17.3359C25.629 17.3359 24.4556 18.3947 24.2684 19.7628H22.8571V11.128H27.0461C28.0224 11.128 28.9202 11.6096 29.4474 12.4165L30.9841 14.7683V19.7628Z" fill="white"/>
<path d="M27.8785 20.1439C27.8785 20.6029 27.5065 20.9749 27.0476 20.9749C26.5887 20.9749 26.2166 20.6029 26.2166 20.1439C26.2166 19.685 26.5887 19.313 27.0476 19.313C27.5065 19.313 27.8785 19.685 27.8785 20.1439Z" fill="white"/>
<path d="M12.6404 20.1439C12.6404 20.6029 12.2684 20.9749 11.8094 20.9749C11.3508 20.9749 10.9788 20.6029 10.9788 20.1439C10.9788 19.685 11.3508 19.313 11.8094 19.313C12.2684 19.313 12.6404 19.685 12.6404 20.1439Z" fill="white"/>
<path d="M8.12698 5.96977V3.7475C8.12698 3.46674 7.8997 3.23975 7.61894 3.23975C7.33847 3.23975 7.11118 3.46674 7.11118 3.7475V5.8041L6.07446 7.22622C5.90908 7.45292 5.95878 7.77031 6.18548 7.93539C6.27617 8.00166 6.3808 8.03334 6.48456 8.03334C6.64121 8.03334 6.79584 7.96097 6.89524 7.82437L8.02961 6.26884C8.09268 6.18223 8.12698 6.0776 8.12698 5.96977Z" fill="white"/>
<path d="M26.8764 11.6357H25.9048C25.624 11.6357 25.3967 11.863 25.3967 12.1438V15.6992C25.3967 15.98 25.624 16.2073 25.9048 16.2073H29.3233C29.6419 16.2073 29.927 16.0425 30.0868 15.7673C30.2467 15.492 30.247 15.1624 30.0895 14.8878L28.9033 12.8117C28.4892 12.0868 27.7123 11.6357 26.8764 11.6357ZM26.4128 15.1915V12.6518H26.8764C27.3487 12.6518 27.7873 12.9062 28.0212 13.316L29.0928 15.1915H26.4128Z" fill="white"/>
</svg>

<svg width="32" height="23" fill="none" xmlns="http://www.w3.org/2000/svg"><path d="M31.917 14.34l-1.62-2.479a3.866 3.866 0 00-3.25-1.75h-4.19v-2.41a2.671 2.671 0 00-2.669-2.668h-7.841A4.986 4.986 0 007.459.99 4.984 4.984 0 002.48 5.97c0 1.726.884 3.249 2.222 4.142H.508a.508.508 0 100 1.016h5.08v1.016H3.554a.508.508 0 000 1.016h2.032v1.015H.508a.508.508 0 100 1.016h5.08v2.25a2.548 2.548 0 00-1.525 2.328v.502c0 .28.228.508.509.508h4.505a2.811 2.811 0 002.732 2.173 2.81 2.81 0 002.733-2.173h9.773a2.812 2.812 0 002.733 2.173c1.329 0 2.444-.93 2.733-2.173h1.711c.28 0 .508-.227.508-.508v-5.654a.508.508 0 00-.083-.278zM3.497 5.97a3.968 3.968 0 013.962-3.963 3.967 3.967 0 013.963 3.963 3.967 3.967 0 01-3.963 3.963A3.968 3.968 0 013.496 5.97zm3.106 9.221H7.62a.508.508 0 100-1.016H6.603V13.16h3.556a.508.508 0 100-1.016H6.603v-1.016h6.603a.508.508 0 100-1.016h-2.99a4.976 4.976 0 002.218-4.064h7.755c.91 0 1.652.742 1.652 1.653v9.522H6.603v-2.031zm15.238 4.572H14.59a2.797 2.797 0 00-.722-1.524h7.974v1.524zM6.61 18.239h3.142c-.382.413-.642.94-.721 1.524H5.079a1.532 1.532 0 011.53-1.524zm5.2 3.697a1.794 1.794 0 01-1.793-1.792c0-.988.805-1.792 1.792-1.792.989 0 1.793.804 1.793 1.792s-.804 1.792-1.793 1.792zm15.238 0a1.794 1.794 0 01-1.792-1.792c0-.988.804-1.792 1.792-1.792s1.792.804 1.792 1.792-.804 1.792-1.792 1.792zm3.936-2.173h-1.157a2.81 2.81 0 00-2.78-2.427 2.81 2.81 0 00-2.779 2.427h-1.41v-8.635h4.188c.976 0 1.874.482 2.401 1.288l1.537 2.352v4.995z" fill="#fff"/><path d="M27.878 20.144a.83.83 0 11-1.661 0 .83.83 0 011.662 0zm-15.238 0a.83.83 0 11-1.661 0 .83.83 0 011.661 0zM8.127 5.97V3.748a.508.508 0 10-1.016 0v2.056L6.074 7.226a.507.507 0 10.821.598L8.03 6.27a.508.508 0 00.097-.3zm18.749 5.666h-.971a.508.508 0 00-.508.508v3.555c0 .281.227.508.508.508h3.418a.874.874 0 00.764-.44.872.872 0 00.003-.88l-1.187-2.075a2.34 2.34 0 00-2.027-1.176zm-.463 3.556v-2.54h.463c.473 0 .911.254 1.145.664l1.072 1.875h-2.68z" fill="#fff"/></svg>
